Papirus-nordic/32x32/places/folder-red-music-open.svg

<svg xmlns="http://www.w3.org/2000/svg" width="32" height="32" version="1"><rect width="25" height="16" x="3" y="12" rx="1.25" ry="1.25" opacity=".2"/><path d="M3 21.75c0 .692.558 1.25 1.25 1.25h22.5c.692 0 1.25-.558 1.25-1.25V8.25C28 7.558 27.442 7 26.75 7H14v-.75C14 5.558 13.443 5 12.75 5h-8.5C3.558 5 3 5.558 3 6.25" fill="#ae4f58"/><rect width="25" height="13" x="3" y="13" rx="1.25" ry="1.25" opacity=".2"/><rect width="21" height="10" x="5" y="9" rx="1.25" ry="1.25" fill="#e4e4e4"/><rect width="25" height="13" x="3" y="14" rx="1.25" ry="1.25" fill="#bf616a"/><path d="M4.25 5C3.558 5 3 5.558 3 6.25v1C3 6.558 3.558 6 4.25 6h8.5c.693 0 1.25.558 1.25 1.25V8h12.75c.692 0 1.25.557 1.25 1.25v-1C28 7.558 27.442 7 26.75 7H14v-.75C14 5.558 13.443 5 12.75 5h-8.5z" opacity=".1" fill="#fff"/><path d="M14 21.27c-.3-.18-.65-.27-1-.27-1.1 0-2 .9-2 2s.9 2 2 2 2-.9 2-2v-5h4v3.27c-.3-.18-.65-.27-1-.27-1.1 0-2 .9-2 2s.9 2 2 2 2-.9 2-2v-7h-6" fill="#974a4d"/></svg>

<svg xmlns="http://www.w3.org/2000/svg" width="32" height="32" version="1">
 <rect style="opacity:0.2" width="25" height="16" x="3" y="12" rx="1.25" ry="1.25"/>
 <path style="fill:#ae4f58" d="M 3,21.75 C 3,22.442 3.5575,23 4.25,23 H 26.75 C 27.442,23 28,22.442 28,21.75 V 8.25 C 28,7.5575 27.442,7 26.75,7 H 14 V 6.25 C 14,5.5575 13.443,5 12.75,5 H 4.25 C 3.5575,5 3,5.5575 3,6.25"/>
 <rect style="opacity:0.2" width="25" height="13" x="3" y="13" rx="1.25" ry="1.25"/>
 <rect style="fill:#e4e4e4" width="21" height="10" x="5" y="9" rx="1.25" ry="1.25"/>
 <rect style="fill:#bf616a" width="25" height="13" x="3" y="14" rx="1.25" ry="1.25"/>
 <path style="opacity:0.1;fill:#ffffff" d="M 4.25 5 C 3.5575 5 3 5.5575 3 6.25 L 3 7.25 C 3 6.5575 3.5575 6 4.25 6 L 12.75 6 C 13.443 6 14 6.5575 14 7.25 L 14 8 L 26.75 8 C 27.442 8 28 8.5575 28 9.25 L 28 8.25 C 28 7.5575 27.442 7 26.75 7 L 14 7 L 14 6.25 C 14 5.5575 13.443 5 12.75 5 L 4.25 5 z"/>
 <path style="fill:#974a4d" d="M 14,21.27 C 13.7,21.09 13.35,21 13,21 11.9,21 11,21.9 11,23 11,24.1 11.9,25 13,25 14.1,25 15,24.1 15,23 V 18 H 19 V 21.27 C 18.7,21.09 18.35,21 18,21 16.9,21 16,21.9 16,23 16,24.1 16.9,25 18,25 19.1,25 20,24.1 20,23 V 16 H 14"/>
</svg>
